X:1
T:Für Elise
T:Für Elise
T:Projeto Sem Nome
T:Arranjo Alexsandro
T:Livre
T:Livre
C:Arranjo Alexsandro
Z:Livre
%%score 1 2 3
L:1/8
Q:1/4=95
M:3/4
K:C
V:1 treble nm="Violino" snm="Vln."
V:2 treble nm="Violino" snm="Vln."
V:3 treble nm="Violino" snm="Vln."
V:1
 z4 (ua^g) | (a^g) (ae) (=gf) |: vd3 (F Ad) | e3 (A ^ce) | f3 A (ua^g) | (a^g) (ae) (=gf) | %6
 vd3 (F Ad) | e3 (A fe) | d4 (ua^g) | (a^g) (ae) (=gf) | vd3 (F Ad) | e3 (A ^ce) | f3 A (ua^g) | %13
 (a^g) (ae) (=gf) | vd3 (F Ad) | e3 (A fe) | d3 (e fg) | a3 (c _ba) | g3 (_B ag) | f3 (A gf) |1 %20
 e2 z (A a) z | z3 (^g a^g) | (a^g) (a^g) (a^g) | (a^g) (ae) (=gf) :|2 e2 z (A a) z || %25
 z3 ^g (ua^g) | (a^g) (a^g) (a^g) | (a^g) (ae) (=gf) | vd3 (F Ad) | e3 (A ^ce) | f3 A (ua^g) | %31
 (a^g) (ae) (=gf) | vd3 (F Ad) | e3 (A fe) | !fermata!vd4 z2 |] %35
V:2
 z6 | z6 |: vd2 z2 dd | e2 z e ee | f2 z4 | z2 va2 g2 | vd2 z2 dd | e2 z (e fe) | d4 z2 | z6 | %10
 vd2 z2 dd | e2 z e ee | f2 z4 | z2 a2 g2 | vd2 z2 dd | e2 z (e fe) | A4 z2 | a3 z _ba | g3 z ag | %19
 f3 z gf |1 z6 | z ^g a z z2 | z6 | z6 :|2 z6 || z ^g a z z2 | z6 | z6 | vd2 z2 dd | e2 z e ee | %30
 f2 z4 | z2 a2 g2 | vd2 z2 dd | e2 z (e fe) | !fermata!vD4 z2 |] %35
V:3
 z6 | z6 |: vA2 z2 AA | ^c2 z c cc | d2 z4 | z2 vf2 e2 | vA2 z2 AA | ^c2 z (c dc) | A4 z2 | z6 | %10
 vA2 z2 AA | ^c2 z c cc | d2 z4 | z2 f2 e2 | vA2 z2 AA | ^c2 z (c dc) | A,4 z2 | (_B,_B e) z z2 | %18
 (CG c) z z2 | (A,A a) z z2 |1 z (A a) z2 (A, | A) z z4 | z6 | z6 :|2 z (A a) z2 (A, || A) z z4 | %26
 z6 | z6 | vA2 z2 AA | ^c2 z c cc | d2 z4 | z2 f2 e2 | vA2 z2 AA | ^c2 z (c dc) | %34
 !fermata!vA4 z2 |] %35

